src/assets/iron.svg

<svg width="253" height="128" viewBox="0 0 253 128" fill="none" xmlns="http://www.w3.org/2000/svg">
<path d="M69.875 26.8984C74.5418 23.0716 82.4841 20.5341 92.375 18.964M69.875 26.8984C70.375 26.8205 71.475 28.8117 71.875 37.3991M69.875 26.8984C63.3633 32.238 55.8975 39.8073 48.375 48.1635M181.875 121.398C166.042 122.065 123.075 120.498 77.875 108.898C32.675 97.2984 15.375 93.2032 12.375 92.6056M12.375 92.6056C11.0911 94.3419 9.91876 95.9487 8.875 97.3984C14.375 98.7317 35.375 103.798 75.375 113.398C125.375 125.398 178.875 128.398 179.875 125.898C180.875 123.398 190.375 112.398 210.875 104.398C227.275 97.9984 245.042 99.7317 251.875 101.398C251.122 98.7443 248.32 95.7803 247.375 92.6056M12.375 92.6056C16.1932 87.4416 20.9976 81.1314 26.3382 74.3984M216.875 76.8984C216.375 74.8984 199.875 36.3984 195.375 32.3984C190.875 28.3984 195.375 26.8984 189.375 26.8984M216.875 76.8984C225.375 78.3984 236.519 78.565 241.375 76.8984M216.875 76.8984C207.542 72.3984 188.475 60.3984 186.875 56.3984M189.375 26.8984C183.375 26.8984 183.375 31.3984 174.375 30.8984C165.375 30.3984 114.875 23.3984 92.375 33.8984C69.875 44.3984 38.875 84.3984 34.875 89.3984M189.375 26.8984C201.375 28.0984 217.446 32.065 225.375 33.8984M34.875 89.3984C30.875 94.3984 136.875 105.898 142.875 107.398C148.875 108.898 188.45 113.398 190.875 113.398M34.875 89.3984C44.875 83.2551 190.875 105.898 192.875 104.398C194.875 102.898 201.875 97.3984 218.375 92.6056C231.575 88.7713 242.561 91.0079 247.375 92.6056M34.875 89.3984C42.875 81.3984 73.375 72.8984 88.875 65.8984C94.4836 63.3655 96.0333 61.6181 95.6324 59.8984M247.375 92.6056C246.06 88.1886 242.953 81.8637 241.375 76.8984M186.875 56.3984C187.208 51.065 187.275 40.1984 184.875 39.3984C181.875 38.3984 145.121 37.3991 136.875 37.3991C127.375 37.3991 80.875 33.8984 86.875 46.8984C89.8649 53.3765 94.9254 56.8654 95.6324 59.8984M186.875 56.3984C160.213 56.065 104.638 56.2984 95.6324 59.8984M205.375 78.3984C176.042 77.0676 111.275 76.5046 86.875 84.8984M92.375 18.964C135.47 12.1229 215.555 23.645 222.875 26.8984C224.351 27.5545 223.373 30.0859 225.375 33.8984M92.375 18.964C90.2083 22.1088 84.275 29.4984 77.875 33.8984C75.8113 35.3172 73.8142 36.4698 71.875 37.3991M56.375 40.8984C61.1983 40.8984 66.2968 40.0724 71.875 37.3991M48.375 48.1635C46.0942 47.8028 42.0091 48.0846 41.375 51.4271M48.375 48.1635C46.2814 50.4892 44.1834 52.8758 42.1004 55.2923M52.875 56.3984C49.375 57.565 42.175 58.5984 41.375 53.3984C41.2592 52.6459 41.2677 51.9927 41.375 51.4271M52.875 56.3984C49.8505 61.565 40.3088 72.3984 26.3382 74.3984M52.875 56.3984C50.075 59.9984 41.9094 60.2317 38.1766 59.8984M26.3382 74.3984C30.0734 69.6893 34.0709 64.7735 38.1766 59.8984M225.375 33.8984C232.087 49.3984 231.375 53.3984 241.375 76.8984M41.375 51.4271L38.1766 59.8984" stroke="black" stroke-linecap="round"/>
<path d="M8.37499 37.3984C6.87499 38.3984 3.57499 38.8984 2.37499 32.8984C0.874993 25.3984 4.37499 22.3984 7.37499 24.3984M0.875048 19.3984C0.875048 17.8984 -0.625062 13.3984 2.37499 10.8984C5.37505 8.39837 7.375 8.89837 9.875 10.8984M17.375 4.89838C17.5417 2.89838 19.175 -0.701616 24.375 0.898384C29.575 2.49838 26.5417 6.56505 24.375 8.39838M26.375 16.3984C26.7083 14.065 28.675 10.0984 33.875 12.8984C36.875 14.5138 34.375 18.3984 31.375 19.3984M24.375 24.3984C23.375 22.8984 19.075 19.1984 15.875 24.3984C12.675 29.5984 16.0417 32.8984 17.375 32.8984M38.375 28.8984C40.875 28.065 45.975 29.6984 44.375 32.8984C42.775 36.0984 41.2083 36.3984 40.875 37.3984M20.375 77.3984L13.875 39.8984M21.375 72.8984V35.3984M23.375 69.3984L31.375 32.8984" stroke="black" stroke-linecap="round"/>
</svg>

<svg xmlns="http://www.w3.org/2000/svg" width="253" height="128" fill="none"><path stroke="#000" stroke-linecap="round" d="M69.875 26.898c4.667-3.826 12.61-6.364 22.5-7.934m-22.5 7.934c.5-.078 1.6 1.914 2 10.501m-2-10.5c-6.512 5.339-13.977 12.908-21.5 21.265m133.5 73.234c-15.833.667-58.8-.9-104-12.5s-62.5-15.695-65.5-16.292m0 0a470 470 0 0 0-3.5 4.792c5.5 1.334 26.5 6.4 66.5 16 50 12 103.5 15 104.5 12.5s10.5-13.5 31-21.5c16.4-6.4 34.167-4.666 41-3-.753-2.654-3.555-5.618-4.5-8.792m-235 0a690 690 0 0 1 13.963-18.208m190.537 2.5c-.5-2-17-40.5-21.5-44.5s0-5.5-6-5.5m27.5 50c8.5 1.5 19.644 1.667 24.5 0m-24.5 0c-9.333-4.5-28.4-16.5-30-20.5m2.5-29.5c-6 0-6 4.5-15 4s-59.5-7.5-82 3-53.5 50.5-57.5 55.5m154.5-62.5c12 1.2 28.071 5.167 36 7m-190.5 55.5c-4 5 102 16.5 108 18s45.575 6 48 6m-156-24c10-6.143 156 16.5 158 15s9-7 25.5-11.792c13.2-3.835 24.186-1.598 29 0m-212.5-3.208c8-8 38.5-16.5 54-23.5 5.609-2.532 7.158-4.28 6.757-6m151.743 32.708c-1.315-4.417-4.422-10.742-6-15.708m-54.5-20.5c.333-5.333.4-16.2-2-17-3-1-39.754-1.999-48-1.999-9.5 0-56-3.5-50 9.5 2.99 6.477 8.05 9.966 8.757 13m91.243-3.5c-26.662-.334-82.237-.1-91.243 3.5m109.743 18.5c-29.333-1.331-94.1-1.894-118.5 6.5m5.5-65.935c43.095-6.841 123.18 4.681 130.5 7.934 1.476.657.498 3.188 2.5 7m-133-14.934c-2.167 3.145-8.1 10.534-14.5 14.934a45 45 0 0 1-6 3.501m-15.5 3.5c4.823 0 9.922-.827 15.5-3.5m-23.5 10.764c-2.28-.36-6.366-.078-7 3.264m7-3.264a443 443 0 0 0-6.275 7.13m10.775 1.105c-3.5 1.167-10.7 2.2-11.5-3-.116-.752-.107-1.405 0-1.97m11.5 4.97c-3.025 5.167-12.566 16-26.537 18m26.537-18c-2.8 3.6-10.966 3.834-14.698 3.5m-11.839 14.5a642 642 0 0 1 11.839-14.5m187.198-26c6.712 15.5 6 19.5 16 43m-200-25.47-3.198 8.47M8.375 37.398c-1.5 1-4.8 1.5-6-4.5-1.5-7.5 2-10.5 5-8.5m-6.5-5c0-1.5-1.5-6 1.5-8.5s5-2 7.5 0m7.5-6c.167-2 1.8-5.6 7-4s2.167 5.667 0 7.5m2 8c.333-2.333 2.3-6.3 7.5-3.5 3 1.616.5 5.5-2.5 6.5m-7 5c-1-1.5-5.3-5.2-8.5 0s.167 8.5 1.5 8.5m21-4c2.5-.833 7.6.8 6 4s-3.167 3.5-3.5 4.5m-20.5 40-6.5-37.5m7.5 33v-37.5m2 34 8-36.5"/></svg>
